poi/svg/2315.svg

<?xml version="1.0" encoding="UTF-8" standalone="no"?>
<svg
   xmlns:dc="http://purl.org/dc/elements/1.1/"
   xmlns:cc="http://creativecommons.org/ns#"
   xmlns:rdf="http://www.w3.org/1999/02/22-rdf-syntax-ns#"
   xmlns:svg="http://www.w3.org/2000/svg"
   xmlns="http://www.w3.org/2000/svg"
   xmlns:sodipodi="http://sodipodi.sourceforge.net/DTD/sodipodi-0.dtd"
   xmlns:inkscape="http://www.inkscape.org/namespaces/inkscape"
   inkscape:version="1.0 (4035a4fb49, 2020-05-01)"
   sodipodi:docname="2315.svg"
   id="svg20"
   version="1.2"
   viewBox="0 0 42.519639 42.519639"
   height="14.999999mm"
   width="14.999999mm">
  <metadata
     id="metadata24">
    <rdf:RDF>
      <cc:Work
         rdf:about="">
        <dc:format>image/svg+xml</dc:format>
        <dc:type
           rdf:resource="http://purl.org/dc/dcmitype/StillImage" />
        <dc:title>Qt SVG Document</dc:title>
      </cc:Work>
    </rdf:RDF>
  </metadata>
  <sodipodi:namedview
     inkscape:current-layer="svg20"
     inkscape:window-maximized="0"
     inkscape:window-y="0"
     inkscape:window-x="0"
     inkscape:cy="28.346482"
     inkscape:cx="28.346482"
     inkscape:zoom="5.8410537"
     showgrid="false"
     id="namedview22"
     inkscape:window-height="480"
     inkscape:window-width="1034"
     inkscape:pageshadow="2"
     inkscape:pageopacity="0"
     guidetolerance="10"
     gridtolerance="10"
     objecttolerance="10"
     borderopacity="1"
     bordercolor="#666666"
     pagecolor="#ffffff" />
  <title
     id="title2">Qt SVG Document</title>
  <desc
     id="desc4">Generated with Qt</desc>
  <defs
     id="defs6" />
  <g
     transform="translate(5.25984,5.25984)"
     id="g18"
     stroke-linejoin="bevel"
     stroke-linecap="square"
     fill-rule="evenodd"
     stroke-width="1"
     stroke="#000000"
     fill="none">
    <g
       id="g10"
       font-style="normal"
       font-weight="400"
       font-size="7.8px"
       font-family="'MS Shell Dlg 2'"
       stroke="none"
       fill-opacity="1"
       fill="#ef4b65">
      <path
         id="path8"
         d="M 37.2598,16 C 37.2598,27.7415 27.7415,37.2598 16,37.2598 4.25851,37.2598 -5.25984,27.7415 -5.25984,16 -5.25984,4.25851 4.25851,-5.25984 16,-5.25984 27.7415,-5.25984 37.2598,4.25851 37.2598,16"
         fill-rule="evenodd"
         vector-effect="non-scaling-stroke" />
    </g>
    <g
       id="g14"
       font-style="normal"
       font-weight="400"
       font-size="7.8px"
       font-family="'MS Shell Dlg 2'"
       transform="translate(15.4331,11.4646)"
       stroke="none"
       fill-opacity="0.94902"
       fill="#ffffff">
      <path
         id="path12"
         d="M -3.83008,13.4321 -1.05859,1.08643 c -0.37793,-0.223963 -0.5669,-0.580896 -0.5669,-1.070805 0,-0.335938 0.12248,-0.626383 0.36743,-0.871338 0.24496,-0.244957 0.535404,-0.367427 0.871341,-0.367427 0.3499351,0 0.654379,0.12247 0.91333,0.367427 0.258952,0.244955 0.388428,0.5354 0.388428,0.871338 0,0.461914 -0.202962,0.818848 -0.608887,1.070805 L 3.05664,13.4321 H 2.1958 L 1.73389,11.2485 -2.15039,9.77881 -2.96924,13.4321 H -3.83008 M 0.915039,7.59521 -1.83545,9.31689 1.54492,10.5977 0.915039,7.59521 M -0.932617,4.48779 0.558105,6.0415 -0.386719,1.90527 -0.932617,4.48779 M -1.87744,8.70801 0.789063,7.02832 V 6.98633 L -1.05859,5.09668 -1.87744,8.70801 m -2.7085,4.72409 H -8.5542 V 9.52686 h 0.65088 V 8.91797 H -6.9585 V 2.3042 C -7.21045,2.38818 -7.4729,2.37419 -7.74585,2.26221 -8.0188,2.15023 -8.21826,1.94727 -8.34424,1.65332 -8.48421,1.34538 -8.49471,1.05493 -8.37573,0.781982 -8.25675,0.509033 -8.05729,0.295573 -7.77734,0.141602 L 5.26123,-5.48535 c 0.27995,-0.11198 0.5564,-0.11198 0.82935,0 0.27295,0.11198 0.47941,0.32894 0.61938,0.65088 0.13997,0.27995 0.15397,0.56339 0.04199,0.85034 -0.11198,0.28695 -0.30794,0.5074 -0.58789,0.66138 l -5.52197,2.30957 c -0.279948,-0.27995 -0.6228843,-0.41993 -1.028809,-0.41993 -0.391927,0 -0.731361,0.14348 -1.018311,0.43042 -0.28695,0.286951 -0.43042,0.626388 -0.43042,1.018315 V 0.0996094 L -6.13965,1.94727 v 6.9707 h 0.94483 v 0.60889 h 0.60888 V 13.4321 M 4.08545,-5.19141 C 3.88949,-5.33138 3.60254,-5.49935 3.22461,-5.69531 l 1.17578,-2.96045 c 1.42774,0.65788 2.58602,1.64469 3.47485,2.96045 0.88884,1.31575 1.33326,2.80648 1.33326,4.47217 0,0.46191 -0.042,0.874833 -0.12598,1.238765 H 8.38965 V 11.5005 H 9.1665 v 1.9316 H 7.23486 V 11.5005 H 8.01172 V 0.015625 H 7.10889 L 5.9751,-2 C 5.91911,-2.16797 5.87712,-2.33244 5.84912,-2.49341 5.82113,-2.65438 5.77913,-2.80485 5.72314,-2.94482 L 6.24805,-3.15479 C 6.55599,-3.30876 6.77645,-3.55721 6.90942,-3.90015 7.0424,-4.24308 7.0319,-4.58252 6.87793,-4.91846 6.65397,-5.46436 6.25505,-5.7373 5.68115,-5.7373 c -0.11198,0 -0.27995,0.02799 -0.5039,0.08398 l -1.0918,0.46191 M 10.6782,13.999 v 1.8057 H -10.1919 V 13.999 h 20.8701"
         fill-rule="evenodd"
         vector-effect="none" />
    </g>
    <g
       id="g16"
       font-style="normal"
       font-weight="400"
       font-size="7.8px"
       font-family="'MS Shell Dlg 2'"
       stroke="none"
       fill-opacity="1"
       fill="#ef4b65" />
  </g>
</svg>

<?xml version="1.0" encoding="UTF-8" standalone="no"?>
<svg width="11.2889mm" height="11.2889mm"
 viewBox="0 0 32 32"
 xmlns="http://www.w3.org/2000/svg" xmlns:xlink="http://www.w3.org/1999/xlink"  version="1.2" baseProfile="tiny">
<title>Qt SVG Document</title>
<desc>Generated with Qt</desc>
<defs>
</defs>
<g fill="none" stroke="black" stroke-width="1" fill-rule="evenodd" stroke-linecap="square" stroke-linejoin="bevel" >

<g fill="#ef4b65" fill-opacity="1" stroke="none" transform="matrix(1,0,0,1,0,0)"
font-family="MS Shell Dlg 2" font-size="7.8" font-weight="400" font-style="normal" 
>
<path vector-effect="non-scaling-stroke" fill-rule="evenodd" d="M37.2598,16 C37.2598,27.7415 27.7415,37.2598 16,37.2598 C4.25851,37.2598 -5.25984,27.7415 -5.25984,16 C-5.25984,4.25851 4.25851,-5.25984 16,-5.25984 C27.7415,-5.25984 37.2598,4.25851 37.2598,16 "/>
</g>

<g fill="#ffffff" fill-opacity="0.94902" stroke="none" transform="matrix(1,0,0,1,15.4331,11.4646)"
font-family="MS Shell Dlg 2" font-size="7.8" font-weight="400" font-style="normal" 
>
<path vector-effect="none" fill-rule="evenodd" d="M-3.83008,13.4321 L-1.05859,1.08643 C-1.43652,0.862467 -1.62549,0.505534 -1.62549,0.015625 C-1.62549,-0.320313 -1.50301,-0.610758 -1.25806,-0.855713 C-1.0131,-1.10067 -0.722656,-1.22314 -0.386719,-1.22314 C-0.0367839,-1.22314 0.26766,-1.10067 0.526611,-0.855713 C0.785563,-0.610758 0.915039,-0.320313 0.915039,0.015625 C0.915039,0.477539 0.712077,0.834473 0.306152,1.08643 L3.05664,13.4321 L2.1958,13.4321 L1.73389,11.2485 L-2.15039,9.77881 L-2.96924,13.4321 L-3.83008,13.4321 M0.915039,7.59521 L-1.83545,9.31689 L1.54492,10.5977 L0.915039,7.59521 M-0.932617,4.48779 L0.558105,6.0415 L-0.386719,1.90527 L-0.932617,4.48779 M-1.87744,8.70801 L0.789063,7.02832 L0.789063,6.98633 L-1.05859,5.09668 L-1.87744,8.70801 M-4.58594,13.4321 L-8.5542,13.4321 L-8.5542,9.52686 L-7.90332,9.52686 L-7.90332,8.91797 L-6.9585,8.91797 L-6.9585,2.3042 C-7.21045,2.38818 -7.4729,2.37419 -7.74585,2.26221 C-8.0188,2.15023 -8.21826,1.94727 -8.34424,1.65332 C-8.48421,1.34538 -8.49471,1.05493 -8.37573,0.781982 C-8.25675,0.509033 -8.05729,0.295573 -7.77734,0.141602 L5.26123,-5.48535 C5.54118,-5.59733 5.81763,-5.59733 6.09058,-5.48535 C6.36353,-5.37337 6.56999,-5.15641 6.70996,-4.83447 C6.84993,-4.55452 6.86393,-4.27108 6.75195,-3.98413 C6.63997,-3.69718 6.44401,-3.47673 6.16406,-3.32275 L0.64209,-1.01318 C0.362142,-1.29313 0.0192057,-1.43311 -0.386719,-1.43311 C-0.778646,-1.43311 -1.11808,-1.28963 -1.40503,-1.00269 C-1.69198,-0.715739 -1.83545,-0.376302 -1.83545,0.015625 L-1.83545,0.0996094 L-6.13965,1.94727 L-6.13965,8.91797 L-5.19482,8.91797 L-5.19482,9.52686 L-4.58594,9.52686 L-4.58594,13.4321 M4.08545,-5.19141 C3.88949,-5.33138 3.60254,-5.49935 3.22461,-5.69531 L4.40039,-8.65576 C5.82813,-7.99788 6.98641,-7.01107 7.87524,-5.69531 C8.76408,-4.37956 9.2085,-2.88883 9.2085,-1.22314 C9.2085,-0.76123 9.1665,-0.348307 9.08252,0.015625 L8.38965,0.015625 L8.38965,11.5005 L9.1665,11.5005 L9.1665,13.4321 L7.23486,13.4321 L7.23486,11.5005 L8.01172,11.5005 L8.01172,0.015625 L7.10889,0.015625 L5.9751,-2 C5.91911,-2.16797 5.87712,-2.33244 5.84912,-2.49341 C5.82113,-2.65438 5.77913,-2.80485 5.72314,-2.94482 L6.24805,-3.15479 C6.55599,-3.30876 6.77645,-3.55721 6.90942,-3.90015 C7.0424,-4.24308 7.0319,-4.58252 6.87793,-4.91846 C6.65397,-5.46436 6.25505,-5.7373 5.68115,-5.7373 C5.56917,-5.7373 5.4012,-5.70931 5.17725,-5.65332 L4.08545,-5.19141 M10.6782,13.999 L10.6782,15.8047 L-10.1919,15.8047 L-10.1919,13.999 L10.6782,13.999"/>
</g>

<g fill="#ef4b65" fill-opacity="1" stroke="none" transform="matrix(1,0,0,1,0,0)"
font-family="MS Shell Dlg 2" font-size="7.8" font-weight="400" font-style="normal" 
>
</g>
</g>
</svg>
